app/images/icons/google+.svg

<svg xmlns="http://www.w3.org/2000/svg" preserveAspectRatio="xMidYMid" width="41" height="41"><circle cx="20.5" cy="20.5" r="20.5" fill="#f6f6f6"/><path d="M31.691 18.835v.069l-.014 1.816-.001.076H29.17l-.018 2.431-.001.069H27.19v-.069l.019-2.431h-2.507l.001-.076.014-1.816v-.069h2.507l.018-2.438.001-.069h1.961l-.001.069-.018 2.438h2.506zm-13.584 8.28a7.722 7.722 0 01-2.356.235c-1.409-.083-2.689-.525-3.823-1.361-1.462-1.077-2.383-2.514-2.77-4.288a6.498 6.498 0 01-.138-1.934 7.048 7.048 0 011.62-4.102 7.123 7.123 0 013.865-2.458 5.767 5.767 0 011.19-.186c.227-.008.455-.021.683-.021a6.743 6.743 0 013.398.932c.701.401 1.098.808 1.269.932-.716.705-1.404 1.395-2.107 2.086-.522-.45-1.099-.863-2.099-1.016a4.423 4.423 0 00-.613-.044c-2.007 0-3.688 1.451-4.136 3.353a3.945 3.945 0 00-.1 1.298c.153 1.768 1.336 3.218 2.935 3.736.407.128.829.189 1.254.189.099 0 .198-.003.298-.009.753-.049 1.458-.249 2.098-.671 1.075-.732 1.423-1.878 1.425-2.161h-3.846l.021-2.77.007-.117h6.754c.364 2.107.036 4.323-1.275 6.056-.907 1.195-2.114 1.948-3.554 2.321z" fill="#888" fill-rule="evenodd"/></svg>

<svg xmlns="http://www.w3.org/2000/svg" xmlns:xlink="http://www.w3.org/1999/xlink" preserveAspectRatio="xMidYMid" width="41" height="41" viewBox="0 0 41 41">
  <defs>
    <style>
      .cls-1 {
        fill: #f6f6f6;
      }

      .cls-2 {
        fill: #888;
        fill-rule: evenodd;
      }
    </style>
  </defs>
  <g>
    <circle cx="20.5" cy="20.5" r="20.5" class="cls-1"/>
    <path d="M31.691,18.835 L31.691,18.904 L31.677,20.720 L31.676,20.796 L31.601,20.796 L29.170,20.796 L29.152,23.227 L29.151,23.296 L29.082,23.296 L27.259,23.296 L27.190,23.296 L27.190,23.227 L27.209,20.796 L24.778,20.796 L24.702,20.796 L24.703,20.720 L24.717,18.904 L24.717,18.835 L24.793,18.835 L27.224,18.835 L27.242,16.397 L27.243,16.328 L27.312,16.328 L29.135,16.328 L29.204,16.328 L29.203,16.397 L29.185,18.835 L31.616,18.835 L31.691,18.835 ZM18.107,27.115 C17.469,27.280 16.821,27.361 16.168,27.361 C16.029,27.361 15.890,27.357 15.751,27.350 C14.342,27.267 13.062,26.825 11.928,25.989 C10.466,24.912 9.545,23.475 9.158,21.701 C9.017,21.058 8.967,20.416 9.020,19.767 C9.122,18.234 9.657,16.860 10.640,15.665 C11.658,14.415 12.955,13.600 14.505,13.207 C14.899,13.103 15.294,13.041 15.695,13.021 C15.922,13.013 16.150,13.000 16.378,13.000 C17.593,13.013 18.731,13.318 19.776,13.932 C20.477,14.333 20.874,14.740 21.045,14.864 C20.329,15.569 19.641,16.259 18.938,16.950 C18.416,16.500 17.839,16.087 16.839,15.934 C16.632,15.905 16.427,15.890 16.226,15.890 C14.219,15.890 12.538,17.341 12.090,19.243 C11.983,19.670 11.953,20.106 11.990,20.541 C12.143,22.309 13.326,23.759 14.925,24.277 C15.332,24.405 15.754,24.466 16.179,24.466 C16.278,24.466 16.377,24.463 16.477,24.457 C17.230,24.408 17.935,24.208 18.575,23.786 C19.650,23.054 19.998,21.908 20.000,21.625 L16.154,21.625 C16.154,21.530 16.168,19.733 16.175,18.855 L16.182,18.738 L22.936,18.738 C23.300,20.845 22.972,23.061 21.661,24.794 C20.754,25.989 19.547,26.742 18.107,27.115 Z" class="cls-2"/>
  </g>
</svg>
